!!!COM: Bach, Johann Sebastian
!!!CDT: 1685/3//-1750/7/28/
!!!OTL@@DE: Ach bleib bei uns, Herr Jesu Christ
!!!AGN: 4-Part Chorale
!!!SCT: BH 177
!!!SCT: BWV 253
**harm	**root	**kern	**kern	**kern	**kern
!	!	!bass	!tenor	!alto	!soprno
*	*Iorgan	*Iorgan	*Iorgan	*Iorgan	*Iorgan
*M4/4	*M4/4	*M4/4	*M4/4	*M4/4	*M4/4
*met(c)	*met(c)	*met(c)	*met(c)	*met(c)	*met(c)
*MM60	*MM60	*MM60	*MM60	*MM60	*MM60
*k[]	*k[]	*k[]	*k[]	*k[]	*k[]
*C:	*C:	*C:	*C:	*C:	*C:
I	4AA	4C	4g	4cc	4ee
=1	=1	=1	=1	=1	=1
I	4AA	4c	4g	4cc	8ee
.	.	.	.	.	8ff
Vb	4EE	4B	4g	4dd	4gg
I	4AA	4c	4g	4cc	4ee
IVb	4DD	4A	8g	4cc	4cc
.	.	.	8f	.	.
=2	=2	=2	=2	=2	=2
IV/IV	4GG	4B-	4f	8b-	4dd
.	.	.	.	8a	.
V/IV	4AA	4c	4c	4g	4ee
I/IV;	4DD;	4F;	4c;	4a;	4ff;
I	4AA	4C	4c	4g	4ee
=3	=3	=3	=3	=3	=3
V	4EE	4G	4B	8g	4dd
.	.	.	.	8f	.
vi	4FF#	8A	4c	4e	4cc
.	.	8G	.	.	.
IV	4DD	8F	2f	2a	4.cc
.	.	8G	.	.	.
IVb	4DD	8A	.	.	.
.	.	8B	.	.	8dd
=4	=4	=4	=4	=4	=4
I	4AA	4c	8e	4g	4ee
.	.	.	8d	.	.
Ib	4AA	8E	4c	4g	4ee
.	.	8F	.	.	.
V	4EE	4G	4c	4.g	8dd
.	.	.	.	.	8cc
V	4EE	4G	4B	.	4dd
.	.	.	.	8f	.
!!linebreak: 2
=5	=5	=5	=5	=5	=5
I;	2.AA;	2.C;	2.G;	2.e;	2.cc;
I	4AA	4C	4g	4cc	4ee
=6	=6	=6	=6	=6	=6
V	4EE	4G	8g	4b	4dd
.	.	.	8f	.	.
Vb/vi	4CC#	4G#	4e	4b	4ee
vi	4FF#	4A	4e	8a	4cc
.	.	.	.	8g	.
V/V	4BB	8d	4d	4f#	4a
.	.	8c	.	.	.
=7	=7	=7	=7	=7	=7
Vb	4EE	4B	4d	4.g	4b
viib/V	4DD#	4A	4c	.	4cc
.	.	.	.	8f#	.
V;	4EE;	4G;	4B;	4g;	4dd;
V/vi	4CC#	4E	4B	4g#	4ee
=8	=8	=8	=8	=8	=8
vi	4FF#	8A	4c	4e	4cc
.	.	8G	.	.	.
IVb	4DD	8A	4f	4a	4cc
.	.	8B	.	.	.
I	4AA	8c	8e	4g	4.cc
.	.	8d	8f	.	.
vib	8FF#	8c	8e	8a	.
vii	8GG#	8B	8d	8b	8dd
=9	=9	=9	=9	=9	=9
vi	4FF#	4A	4c	4cc	4ee
Ib	4AA	8E	4c	4g	4ee
.	.	8F	.	.	.
V	4EE	4G	4c	4.g	8dd
.	.	.	.	.	8cc
V	4EE	4G	4B	.	4dd
.	.	.	.	8f	.
=10	=10	=10	=10	=10	=10
I;	2.AA;	2.C;	2.G;	2.e;	2.cc;
====	====	====	====	====	====
*-	*-	*-	*-	*-	*-
!!chor2scor: -l 2 -s 0.6 -o %b.pmx
!!!YEC: Copyright 1994, David Huron
!!!YEC: Changes/Additions 2001 by Craig Stuart Sapp
!!!YEN: United States of America
!!!SMA: 371 Bach Chorales, edited by Ludwig Erk, C.F. Peters
!!!PDT: 1850, 1865
!!!ONB: Harmony and Root analysis done manually
